X:998
T:Anglais efter Jöns Persson
T:(SvL Skåne nr. 64)
R:Anglais
Z:Patrik Månsson, 2009-01-12
O:Roalöv, Skåne
S:efter Jöns Persson
S:Svenska Låtar Skåne
B:Svenska Låtar Skåne
M:C
L:1/8
K:D

|: A2 | dcdc dABc | dcdc defd |
efgf gfed | (cA)Bc d2 :: ag | f2 fa d2 df |
A2 df (ag)ag | e2 eg c2 ce | A2 Bc d2 :|


(:musicend:)

(:music:)
